src/categories-icons-sprite/categories/svg-cat-accessories-belt.svg

<svg width="35" height="20" viewBox="0 0 35 20" fill="none" xmlns="http://www.w3.org/2000/svg">
<path class="p-FFB64C" d="M0 0H24.4444V20H0V0Z" fill="#58ADE5"/>
<path class="p-FF914A" d="M0 10H24.4444V20H0V10Z" fill="#4D98CB"/>
<path class="p-AF5D5B" d="M6.66699 4.44434V15.5554H34.5569V4.44434H6.66699Z" fill="#A1D1FD"/>
<path class="p-974C4E" d="M6.66699 10H34.5569V15.5556H6.66699V10Z" fill="#76B7E2"/>
<path class="p-974C4E" d="M21.793 9.99869L23.3708 8.42114L24.9486 9.99869L23.3708 11.5765L21.793 9.99869Z" fill="#76B7E2"/>
<path class="p-783541" d="M21.7939 10H24.9496L23.3718 11.5778L21.7939 10Z" fill="#4D98CB"/>
<path class="p-FFD396" d="M3.60156 8.88892H14.7127V11.1111H3.60156V8.88892Z" fill="#B9DFFC"/>
<path class="p-FFB64C" d="M3.60156 10H14.7127V11.1111H3.60156V10Z" fill="#5FBEFF"/>
</svg>

<svg width="35" height="20" fill="none" xmlns="http://www.w3.org/2000/svg"><path class="p-FFB64C" d="M0 0h24.444v20H0V0z" fill="#58ADE5"/><path class="p-FF914A" d="M0 10h24.444v10H0V10z" fill="#4D98CB"/><path class="p-AF5D5B" d="M6.667 4.444v11.111h27.89V4.445H6.667z" fill="#A1D1FD"/><path class="p-974C4E" d="M6.667 10h27.89v5.556H6.667V10z" fill="#76B7E2"/><path class="p-974C4E" d="M21.793 9.999l1.578-1.578L24.949 10l-1.578 1.577L21.793 10z" fill="#76B7E2"/><path class="p-783541" d="M21.794 10h3.156l-1.578 1.578L21.794 10z" fill="#4D98CB"/><path class="p-FFD396" d="M3.602 8.889h11.11v2.222H3.603V8.89z" fill="#B9DFFC"/><path class="p-FFB64C" d="M3.602 10h11.11v1.111H3.603V10z" fill="#5FBEFF"/></svg>
